src/assets/sponsors/obol.svg

<svg fill="none" height="24" viewBox="0 0 103 24" width="103" xmlns="http://www.w3.org/2000/svg" xmlns:xlink="http://www.w3.org/1999/xlink"><linearGradient id="a"><stop offset="0" stop-color="#0f7c76"/><stop offset="1" stop-color="#2fe4ab"/></linearGradient><linearGradient id="b" gradientUnits="userSpaceOnUse" x1="12.8053" x2="7.8132" xlink:href="#a" y1="14.2584" y2="19.2499"/><linearGradient id="c" gradientUnits="userSpaceOnUse" x1="16.0635" x2="20.9892" xlink:href="#a" y1="12.8601" y2="7.93376"/><g fill="#f4f3ec"><path d="m59.762 20.7411c-1.7041 0-3.1928-.3732-4.466-1.1197-1.2659-.7373-2.3023-1.8114-2.9939-3.1028-.7218-1.3226-1.0827-2.852-1.0827-4.5882 0-1.7363.3609-3.2655 1.0827-4.58763.6912-1.2912 1.7269-2.36548 2.992-3.10348 1.2737-.74602 2.7624-1.11924 4.4661-1.11966 1.6874 0 3.1721.37322 4.4542 1.11966 1.2689.73347 2.3061 1.80886 2.9932 3.10348.7139 1.32254 1.071 2.85173 1.0715 4.58763.0004 1.7358-.3568 3.2652-1.0715 4.5882-.687 1.2945-1.7242 2.3698-2.9932 3.1028-1.2804.7465-2.7645 1.1197-4.4524 1.1197zm0-2.7992c1.6223 0 2.9165-.5354 3.8825-1.6062s1.4488-2.5392 1.4484-4.4053c0-1.8657-.4828-3.33418-1.4484-4.40541s-2.2598-1.60664-3.8825-1.60622c-1.6222 0-2.9204.53541-3.8943 1.60622-.974 1.07082-1.4607 2.53931-1.4603 4.40541 0 1.8661.4867 3.3345 1.4603 4.4053.9735 1.0708 2.2716 1.6062 3.8943 1.6062z"/><path d="m77.4242 20.741c-.9084 0-1.7035-.1703-2.3852-.511-.6664-.3276-1.2367-.8223-1.6551-1.4359l-.3406 1.6551h-2.7747v-17.5244h3.1153v7.1801c.4211-.56421.9455-1.04321 1.5455-1.41148.6413-.40578 1.4729-.60867 2.4948-.60867 1.136 0 2.1502.27595 3.0428.82785.8937.55355 1.6243 1.3345 2.1172 2.2631.5189.9573.7786 2.0444.779 3.2613s-.2593 2.3001-.779 3.2494c-.4933.9218-1.224 1.6949-2.1166 2.2393-.8934.5435-1.9078.8153-3.0434.8153zm-.6569-2.7259c.9894 0 1.8089-.3327 2.4585-.9981.6496-.6655.974-1.5255.9732-2.58 0-1.0545-.3244-1.9225-.9732-2.6038-.6487-.6813-1.4682-1.0222-2.4585-1.0226-1.0065 0-1.83.3367-2.4704 1.0101s-.9608 1.5375-.9612 2.5925c0 1.0545.3204 1.9185.9612 2.5919.6409.6734 1.4643 1.01 2.4704 1.01z"/><path d="m91.0417 20.7412c-1.1689 0-2.2194-.2678-3.1517-.8034-.9261-.5283-1.6915-1.2979-2.2148-2.2268-.5428-.9493-.8141-2.0485-.8141-3.2976s.2757-2.3485.8272-3.2982c.5304-.9278 1.2995-1.69672 2.2274-2.22681.9331-.53562 1.9836-.80343 3.1517-.80343 1.1522 0 2.1959.26781 3.131.80343.9259.52866 1.6912 1.29811 2.2149 2.22681.5428.9493.8141 2.0487.8141 3.2982s-.2713 2.3487-.8141 3.2976c-.5271.9318-1.2988 1.7018-2.2318 2.2268-.9409.5361-1.9875.8039-3.1398.8034zm0-2.7014c.8116 0 1.5176-.3044 2.1179-.913.6003-.6087.9005-1.5132.9005-2.7134 0-1.2011-.3002-2.1057-.9005-2.714-.6003-.6082-1.2982-.9126-2.0934-.913-.8275 0-1.5372.3044-2.1291.913-.592.6087-.888 1.5134-.888 2.714 0 1.2007.296 2.1051.888 2.7134.5919.6082 1.2935.9126 2.1046.913z"/><path d="m99.1285 20.4492v-17.5244h3.1155v17.5244z"/></g><path d="m29.8751 23.9998c-2.9814 0-6.0248-1.131-9.08-3.3815-2.2932-1.6858-4.1512-3.2037-5.7912-4.5432l-.1522-.1252-.8716.8203c-2.5969 2.4422-4.70598 3.9558-7.19578 3.9558-3.61446.0012-6.78432-2.9532-6.78432-6.3235 0-3.5693 3.4097-6.34344 6.34347-6.34344 3.06842 0 5.42043 1.42149 8.34613 3.71214 4.1004-3.84552 8.1757-7.57145 11.2623-9.62291 3.962-2.633195 10.0531-3.28445 14.027.56359 4.5087 4.36529 2.8474 12.76902-.2273 16.41162-1.1478 1.3595-3.6213 3.7641-7.2947 4.5863-.8473.1916-1.7132.2888-2.5818.29zm-12.7051-10.2272c1.5686 1.2812 3.3433 2.7246 5.4937 4.3064 2.7597 2.0295 5.1894 2.7597 7.2552 2.7597 3.7034 0 6.2377-2.3452 7.4224-3.7485 3.3227-3.9357 2.5593-10.05937.4434-12.10895-3.1035-3.00579-7.7318-1.76903-10.0857-.20477-2.8079 1.8661-6.6359 5.34902-10.529 8.99612zm-10.82653-2.5575c-1.4052 0-3.18801 1.5029-3.18801 3.1881 0 1.6281 1.76339 3.1704 3.62761 3.1704 1.25242 0 2.66263-.8691 5.03343-3.0991l.5467-.5141c-2.2738-1.7458-4.01962-2.7453-6.01973-2.7453z" fill="#2fe4ab"/><path d="m11.8165 14.4745c-2.37078 2.2299-3.78225 3.0991-5.03341 3.0991-.30788-.001-.61434-.0418-.91175-.1215v3.2124c.30213.0417.60676.0627.91175.0627 2.4898 0 4.59891-1.5136 7.19571-3.9558l.8717-.8203-2.4873-1.9926z" fill="url(#b)" opacity=".92"/><path d="m14.6896 11.7724 2.4804 2.0007c1.7646-1.6538 3.5161-3.2725 5.1655-4.72344l-2.2343-2.23618c-1.7421 1.53545-3.5737 3.23432-5.4116 4.95892z" fill="url(#c)" opacity=".8464"/></svg>

<svg width="103" height="24" viewBox="0 0 103 24" fill="none" xmlns="http://www.w3.org/2000/svg">
<path d="M59.762 20.7411C58.0579 20.7411 56.5692 20.3679 55.296 19.6214C54.0301 18.8841 52.9937 17.81 52.3021 16.5186C51.5803 15.196 51.2194 13.6666 51.2194 11.9304C51.2194 10.1941 51.5803 8.6649 52.3021 7.34277C52.9933 6.05157 54.029 4.97729 55.2941 4.23929C56.5678 3.49327 58.0565 3.12005 59.7602 3.11963C61.4476 3.11963 62.9323 3.49285 64.2144 4.23929C65.4833 4.97276 66.5205 6.04815 67.2076 7.34277C67.9215 8.66531 68.2786 10.1945 68.2791 11.9304C68.2795 13.6662 67.9223 15.1956 67.2076 16.5186C66.5206 17.8131 65.4834 18.8884 64.2144 19.6214C62.934 20.3679 61.4499 20.7411 59.762 20.7411ZM59.762 17.9419C61.3843 17.9419 62.6785 17.4065 63.6445 16.3357C64.6105 15.2649 65.0933 13.7965 65.0929 11.9304C65.0929 10.0647 64.6101 8.59622 63.6445 7.52499C62.6789 6.45376 61.3847 5.91835 59.762 5.91877C58.1398 5.91877 56.8416 6.45418 55.8677 7.52499C54.8937 8.59581 54.407 10.0643 54.4074 11.9304C54.4074 13.7965 54.8941 15.2649 55.8677 16.3357C56.8412 17.4065 58.1393 17.9419 59.762 17.9419Z" fill="#F4F3EC"/>
<path d="M77.4242 20.741C76.5158 20.741 75.7207 20.5707 75.039 20.23C74.3726 19.9024 73.8023 19.4077 73.3839 18.7941L73.0433 20.4492H70.2686V2.9248H73.3839V10.1049C73.805 9.54069 74.3294 9.06169 74.9294 8.69342C75.5707 8.28764 76.4023 8.08475 77.4242 8.08475C78.5602 8.08475 79.5744 8.3607 80.467 8.9126C81.3607 9.46615 82.0913 10.2471 82.5842 11.1757C83.1031 12.133 83.3628 13.2201 83.3632 14.437C83.3636 15.6539 83.1039 16.7371 82.5842 17.6864C82.0909 18.6082 81.3602 19.3813 80.4676 19.9257C79.5742 20.4692 78.5598 20.741 77.4242 20.741ZM76.7673 18.0151C77.7567 18.0151 78.5762 17.6824 79.2258 17.017C79.8754 16.3515 80.1998 15.4915 80.199 14.437C80.199 13.3825 79.8746 12.5145 79.2258 11.8332C78.5771 11.1519 77.7576 10.811 76.7673 10.8106C75.7608 10.8106 74.9373 11.1473 74.2969 11.8207C73.6565 12.4941 73.3361 13.3582 73.3357 14.4132C73.3357 15.4677 73.6561 16.3317 74.2969 17.0051C74.9378 17.6785 75.7612 18.0151 76.7673 18.0151Z" fill="#F4F3EC"/>
<path d="M91.0417 20.7412C89.8728 20.7412 88.8223 20.4734 87.89 19.9378C86.9639 19.4095 86.1985 18.6399 85.6752 17.711C85.1324 16.7617 84.8611 15.6625 84.8611 14.4134C84.8611 13.1643 85.1368 12.0649 85.6883 11.1152C86.2187 10.1874 86.9878 9.41848 87.9157 8.88839C88.8488 8.35277 89.8993 8.08496 91.0674 8.08496C92.2196 8.08496 93.2633 8.35277 94.1984 8.88839C95.1243 9.41705 95.8896 10.1865 96.4133 11.1152C96.9561 12.0645 97.2274 13.1639 97.2274 14.4134C97.2274 15.6629 96.9561 16.7621 96.4133 17.711C95.8862 18.6428 95.1145 19.4128 94.1815 19.9378C93.2406 20.4739 92.194 20.7417 91.0417 20.7412ZM91.0417 18.0398C91.8533 18.0398 92.5593 17.7354 93.1596 17.1268C93.7599 16.5181 94.0601 15.6136 94.0601 14.4134C94.0601 13.2123 93.7599 12.3077 93.1596 11.6994C92.5593 11.0912 91.8614 10.7868 91.0662 10.7864C90.2387 10.7864 89.529 11.0908 88.9371 11.6994C88.3451 12.3081 88.0491 13.2128 88.0491 14.4134C88.0491 15.6141 88.3451 16.5185 88.9371 17.1268C89.529 17.735 90.2306 18.0394 91.0417 18.0398Z" fill="#F4F3EC"/>
<path d="M99.1285 20.4492V2.9248H102.244V20.4492H99.1285Z" fill="#F4F3EC"/>
<path d="M29.8751 23.9998C26.8937 23.9998 23.8503 22.8688 20.7951 20.6183C18.5019 18.9325 16.6439 17.4146 15.0039 16.0751L14.8517 15.9499L13.9801 16.7702C11.3832 19.2124 9.27412 20.726 6.78432 20.726C3.16986 20.7272 0 17.7728 0 14.4025C0 10.8332 3.4097 8.05906 6.34347 8.05906C9.41189 8.05906 11.7639 9.48055 14.6896 11.7712C18.79 7.92568 22.8653 4.19975 25.9519 2.14829C29.9139 -0.484905 36.005 -1.13616 39.9789 2.71188C44.4876 7.07717 42.8263 15.4809 39.7516 19.1235C38.6038 20.483 36.1303 22.8876 32.4569 23.7098C31.6096 23.9014 30.7437 23.9986 29.8751 23.9998ZM17.17 13.7726C18.7386 15.0538 20.5133 16.4972 22.6637 18.079C25.4234 20.1085 27.8531 20.8387 29.9189 20.8387C33.6223 20.8387 36.1566 18.4935 37.3413 17.0902C40.664 13.1545 39.9006 7.03083 37.7847 4.98125C34.6812 1.97546 30.0529 3.21222 27.699 4.77648C24.8911 6.64258 21.0631 10.1255 17.17 13.7726ZM6.34347 11.2151C4.93827 11.2151 3.15546 12.718 3.15546 14.4032C3.15546 16.0313 4.91885 17.5736 6.78307 17.5736C8.03549 17.5736 9.4457 16.7045 11.8165 14.4745L12.3632 13.9604C10.0894 12.2146 8.34358 11.2151 6.34347 11.2151Z" fill="#2FE4AB"/>
<path opacity="0.92" d="M11.8165 14.4745C9.44572 16.7044 8.03425 17.5736 6.78309 17.5736C6.47521 17.5726 6.16875 17.5318 5.87134 17.4521V20.6645C6.17347 20.7062 6.4781 20.7272 6.78309 20.7272C9.27289 20.7272 11.382 19.2136 13.9788 16.7714L14.8505 15.9511L12.3632 13.9585L11.8165 14.4745Z" fill="url(#paint0_linear_580_11026)"/>
<g opacity="0.92">
<path opacity="0.92" d="M14.6896 11.7724L17.17 13.7731C18.9346 12.1193 20.6861 10.5006 22.3355 9.04966L20.1012 6.81348C18.3591 8.34893 16.5275 10.0478 14.6896 11.7724Z" fill="url(#paint1_linear_580_11026)"/>
</g>
<defs>
<linearGradient id="paint0_linear_580_11026" x1="12.8053" y1="14.2584" x2="7.8132" y2="19.2499" gradientUnits="userSpaceOnUse">
<stop stop-color="#0F7C76"/>
<stop offset="1" stop-color="#2FE4AB"/>
</linearGradient>
<linearGradient id="paint1_linear_580_11026" x1="16.0635" y1="12.8601" x2="20.9892" y2="7.93376" gradientUnits="userSpaceOnUse">
<stop stop-color="#0F7C76"/>
<stop offset="1" stop-color="#2FE4AB"/>
</linearGradient>
</defs>
</svg>
